src/assets/svg/social/linkedin.svg

<svg width="18" height="18" viewBox="0 0 18 18" fill="none" xmlns="http://www.w3.org/2000/svg">
    <path
        d="M12.1498 5.40042C11.3834 5.39779 10.6239 5.54632 9.91493 5.8375C9.20594 6.12868 8.56133 6.55681 8.01797 7.09737C7.47462 7.63794 7.04319 8.28035 6.74837 8.98783C6.45354 9.6953 6.30111 10.454 6.2998 11.2204V17.1004C6.2998 17.3391 6.39463 17.568 6.56341 17.7368C6.73219 17.9056 6.96111 18.0004 7.1998 18.0004H9.2998C9.5385 18.0004 9.76742 17.9056 9.9362 17.7368C10.105 17.568 10.1998 17.3391 10.1998 17.1004V11.2204C10.1996 10.9478 10.2569 10.6782 10.3678 10.4293C10.4788 10.1803 10.641 9.95747 10.8439 9.77537C11.0467 9.59327 11.2857 9.45597 11.5452 9.37241C11.8046 9.28885 12.0788 9.26092 12.3498 9.29043C12.8358 9.35164 13.2825 9.58909 13.605 9.95774C13.9276 10.3264 14.1036 10.8006 14.0998 11.2904V17.1004C14.0998 17.3391 14.1946 17.568 14.3634 17.7368C14.5322 17.9056 14.7611 18.0004 14.9998 18.0004H17.0998C17.3385 18.0004 17.5674 17.9056 17.7362 17.7368C17.905 17.568 17.9998 17.3391 17.9998 17.1004V11.2204C17.9985 10.454 17.8461 9.6953 17.5512 8.98783C17.2564 8.28035 16.825 7.63794 16.2816 7.09737C15.7383 6.55681 15.0937 6.12868 14.3847 5.8375C13.6757 5.54632 12.9163 5.39779 12.1498 5.40042Z"
        fill="#E8E8E8" style="mix-blend-mode:plus-lighter" />
    <path
        d="M3.6 6.2998H0.9C0.402944 6.2998 0 6.70275 0 7.1998V17.0998C0 17.5969 0.402944 17.9998 0.9 17.9998H3.6C4.09706 17.9998 4.5 17.5969 4.5 17.0998V7.1998C4.5 6.70275 4.09706 6.2998 3.6 6.2998Z"
        fill="#E8E8E8" style="mix-blend-mode:plus-lighter" />
    <path
        d="M2.25 4.5C3.49264 4.5 4.5 3.49264 4.5 2.25C4.5 1.00736 3.49264 0 2.25 0C1.00736 0 0 1.00736 0 2.25C0 3.49264 1.00736 4.5 2.25 4.5Z"
        fill="#E8E8E8" style="mix-blend-mode:plus-lighter" />
</svg>

<svg width="18" height="18" fill="none" xmlns="http://www.w3.org/2000/svg"><path d="M12.15 5.4a5.83 5.83 0 0 0-5.85 5.82v5.88a.9.9 0 0 0 .9.9h2.1a.9.9 0 0 0 .9-.9v-5.88a1.94 1.94 0 0 1 2.15-1.93 2 2 0 0 1 1.75 2v5.81a.9.9 0 0 0 .9.9h2.1a.9.9 0 0 0 .9-.9v-5.88a5.828 5.828 0 0 0-5.85-5.82zM3.6 6.3H.9a.9.9 0 0 0-.9.9v9.9a.9.9 0 0 0 .9.9h2.7a.9.9 0 0 0 .9-.9V7.2a.9.9 0 0 0-.9-.9zM2.25 4.5a2.25 2.25 0 1 0 0-4.5 2.25 2.25 0 0 0 0 4.5z" fill="#E8E8E8" style="mix-blend-mode:plus-lighter"/></svg>
